X: 30571
T: MANCHESTER HORNPIPE
C:
%R: hornpipe, reel
B: Elias Howe "The Musician's Companion" Part 3 1844 p.57 #1
S: http://imslp.org/wiki/The_Musician's_Companion_(Howe,_Elias)
S: https://archive.org/stream/firstthirdpartof03howe/#page/66/mode/1up
Z: 2015 John Chambers <jc:trillian.mit.edu>
M: 2/4
L: 1/16
K: D
% - - - - - - - - - - - - - - - - - - - - - - - - -
(3(ABc) |\
d2d2 dbag | fedc d2D2 | BcdB AGFE | FGAF D2A2 |\
FDEF GABc | dABc def^g | afed c2B^G | A2A2A2 |]
(FG) |\
AFDF ABcd | BAGF G2GA | BGEG BeBd | cBA^G ABcd |\
ecAc efge | fedc d2A2 | Bbag fedc | d2[d2D2][d2D2] |]
% - - - - - - - - - - - - - - - - - - - - - - - - -
